!!!OTL: 580. Kriegers Abschied (1870).
!!!ARE: Europa, Mitteleuropa, Deutschland, Wetzlar, Schwalbach
!!!SCT: B0580
!!!TXL: @@DE
!!!YEM: Copyright 1995, estate of Helmut Schaffrath.
**kern	**text
*ICvox	*
*Ivox	*
*clefG2	*
*M3/4	*
*k[b-e-a-]	*
*E-:	*
!LO:TX:a:t=Bewegt.	!
{8.g	Le-
16g	-be
=1	=1
4.a-^	wohl!
8g	Es
8a-	ruft
8g	die
=2	=2
4f	Stun-
4B-}	-de
{8.e-	muß
16e-	ʒum
=3	=3
4d	Kam-
4d	-pfe
8f	fort
8g	von
=4	=4
4e-	hier!
4r}	.
{8.g	Still'
16g	die
=5	=5
4.a-^	Thrä-
8g	-ne,
8a-	löſch'
8g	die
=6	=6
4f	Wun-
4B-}	-de
{8.e-	und
16e-	den
=7	=7
4d	letʒ-
4d	-ten
8f	Kuß
8g	gieb
=8	=8
4e-	mir!
4r}	.
{(>12e-	Sie-
12e-	-he,
12e-)	bald
=9	=9
4cc	wirſt
8.a-	du
16a-	den
(12a-	Sieger
12a-	.
12cc)	um-
=10	=10
4b-	-krän-
4g}	-ʒen,
{(12g	ſchmücken
12f	.
12g)	mit
=11	=11
4b-	Lor-
8.a-	-beer
16g	ſein
(>12f	theue-
12e-	.
12f)	-res
=12	=12
2g}	Haupt.
{(>12e-	Wenn
12e-	dann
12e-)	im
=13	=13
4cc	Au-
8.a-	-ge
16a-	die
(>12a-	Thränen
12a-	.
12cc)	dir
=14	=14
4b-	glänʒen,
4g}	.
{(>12g	wer-
12f	-den
12g)	ſie
=15	=15
4b-	doch
8.a-	durch
16g	die
(>12f	Freude
12e-	.
12f)	ge-
=16	=16
2g}	-raubt.
==	==
!!!AGN: Staende -, Soldaten - Lied, Abschied
!!!GTL: Soldatenlieder
!!!ONB: ESAC (Essen Associative Code) Database: BOEHME
!!!AMT: simple triple
!!!AIN: vox
!!!EED: Helmut Schaffrath
!!!EEV: 1.0
!!!RDF**kern: > = above
!!Aus Schwalbach (Kr. Wetʒlar). 1892.
!!@@COMMENT:"Melodie und Text in mehrfachen Lesarten aus den Rheinlanden in K. Becker's handſchriftl.
!!Sammlung 1894: aus Daubhauſen (Kr. Wetʒlar), Schmiedel (Hunsrück. Anderwärts mit dem
!!Anfang der dritten Stophe: "Horch, die Stunde" rc. ſ. Becker, Rh. Volksl. Nr. 126. - Nach Tert
!!und Mel. iſt das Lied beſſer als das im Liederhort III, S. 276 aus dem Elſaß von mit mit-
!!getheilte."
!!@@END:
!!!URL-scan: https://archive.org/details/BoehmeVtLieder1895/page/n459/mode/2up
!!!ENC: Anna Maria Matuszewska
!!!EEV: 2024/12/07
*-	*-
